X:1
T:James Gibb editions
T:So weich und warm - Cornelius
T:#
%%score [ 1 2 3 4 ]
L:1/8
Q:1/4=90
M:4/4
K:Eb
V:1 treble nm="Soprano"
V:2 treble nm="Alto"
V:3 treble-8 nm="Tenor"
V:4 bass nm="Bass"
V:1
"^So weich und warm""^Peter Cornelius\n(1824-74)"!p! BAG | e4- ecBG | E4- E"^cresc."EFG | %3
w: ~So weich und|warm * Hegt dich kein|Arm * Als wenn die|
w: |||
w: ~Und wenn er-|greist * in treu- em|Geist * du manch' ein|
[M:4/4] A2 A2 A2 (cB) |!>(! A4!>)! z!p! BAG | e4- edcB | =A4- A"^cresc."cfe | d2 d2 d2 (ec) | %8
w: Mut- ter dich um\- *|fängt, Kein Trost so|traut * dich ü- ber-|taut, * Als wenn ihr|Aug' an dei- nem *|
w: |||||
w: Ju- gend- bild be\- *|wahrst, vor Al- lem|hoch * be- glückt dich|doch, * daß dei- ner|Mut- ter Kind du *|
!>(! B4!>)! z!pp! BAG | c2 c2 c2 (AF) | E3 z !fermata!z2 z2 | z!mf! ced c4- | cecB =A3 A | %13
w: hängt, Als wenn ihr|Aug' an dei- nem *|hängt.||* als gu- tes Kind, daß|
w: |||Drum sei ge- sinnt||
w: warst, daß dei- ner|Mut- ter Kind du *|warst.|||
 d3 d"^cresc." cccB | =A3 z z!mf! BcA | B4- BB_c!courtesy!_A | B4- B =B2"^cresc." B | %17
w: ster- bend sie dich seg- net|ein: Sonst ob auch|Lieb * und Freund- schaft|blieb, * ob auch|
w: ||||
w: ||||
 c2 c2 c2 (cd) | e3 z z!p! cfe | d2 d2 d2 ec | B3 z z!pp! BAG | c2 c2 c2 AF | E3 z z |] %23
w: Lieb und Freund- schaft *|blieb, bist den- noch|mut- ter- see- len- al-|lein, bist den- noch|mut- ter- see- len- al-|lein.|
w: ||||||
w: ||||||
V:2
!p! GFE | G3 E (E2 G)E | C4- C"^cresc."CDE |[M:4/4] A2 G2 F2 E2 |!>(! D2 C2 (B,!>)!G)!p! (FE) | %5
w: ~So weich und|warm Hegt dich * kein|Arm * Als wenn die|Mut- ter dich um-|fängt, Kein Trost * so *|
w: |||||
w: ~Und wenn er-|greist in treu\- * em|Geist * du manch' ein|Ju- gend- bild be-|wahrst, vor Al\- * lem *|
 (G c2) B (GB) (=AG) | F3 F"^cresc." F2 F2 | F2 (B=A) G2 (GE) |!>(! D4!>)! z!pp! GFE | %9
w: traut * dich ü\- * ber\- *|taut, Als wenn ihr|Aug' an * dei- nem *|hängt, Als wenn ihr|
w: ||||
w: hoch * be- glückt * dich *|doch, daß dei- ner|Mut- ter * Kind du *|warst, daß dei- ner|
 E2 E2 D2 D2 | B,3 z !fermata!z!mf! GAF | G4- GGAF | G4- GG^FF | G3 G"^cresc." G^FGG | %14
w: Aug' an dei- nem|hängt. * * *||Kind, * daß dich die|Mut- ter ster- bend seg- net|
w: |* Drum sei ge-|sinnt * als gu- tes|||
w: Mut- ter Kind du|warst. * * *||||
 ^F3 z z!mf! G=A!courtesy!^F | G4- GG!courtesy!_AF | G4- G D2"^cresc." D | B,2 B2 B2 B2 | %18
w: ein: Sonst ob auch|Lieb * und Freund- schaft|blieb, * ob auch|Lieb und Freund- schaft|
w: ||||
w: ||||
 =A3 z z!p! FFF | F2 F2 F2 GE | D3 z z!pp! GFE | E2 E2 D2 DD | B,3 z z |] %23
w: blieb, bist den- noch|mut- ter- see- len- al-|lein, bist den- noch|mut- ter- see- len- al-|lein.|
w: |||||
w: |||||
V:3
 z z!p! e | (e2 d)c B3- B | (c2 B)A G2"^cresc." c2 |[M:4/4][K:treble-8] c2 c2 c2 A2 | %4
w: So|weich * und warm *|Hegt dich kein Arm Als|wenn die Mut- ter|
w: ||||
w: Und|wenn * er- greist in|treu- * em Geist du|manch' ein Ju- gend-|
!>(! f2 e2 (d2!>)! B2) | z!p! Gcd e4- | effe"^cresc." c2 c2 | c2 B2 B2 =A2 | %8
w: dich um- fängt, *|Kein Trost so traut|* dich ü- ber- taut, Als|wenn ihr Aug' an|
w: ||||
w: bild be- wahrst, *|vor Al- lem hoch|* be- glückt dich doch, daß|dei- ner Mut- ter|
!>(! (!courtesy!_AF) (GA)!>)! B2!pp! E2 | A2 G2 F2 (BA) | G3 z !fermata!z!mf! efd | e4- eefd | %12
w: dei\- * nem * hängt, ihr|Aug' an dei- nem *|hängt. * * *||
w: ||* Drum sei ge-|sinnt * als gu- tes|
w: Kind * du * warst, der|Mut- ter Kind du *|warst. * * *||
 e4- eedd | d3 d"^cresc." edd=e | =A3!mf! d d2 d2 | d4- deee | e4- e g2"^cresc." f | %17
w: Kind, * daß dich die|Mut- ter ster- bend seg- net|ein: Sonst ob auch|Lieb * und Freund- schaft|blieb, * ob auch|
w: |||||
w: |||||
 f2 =e2 _e2 e2 | c3 z z!p! ccc | c2 B2 B2 =AA | (!courtesy!_AF) (GA) B2 E2 |!pp! A2 G2 F2 BA | %22
w: Lieb und Freund- schaft|blieb, bist den- noch|mut- ter- see- len- al-|lein, * bist * den- noch|mut- ter- see- len- al-|
w: |||||
w: |||||
 G3 z z |] %23
w: lein.|
w: |
w: |
V:4
 z z!p! E, | (C2 B,)A, G,3- G, | (A,2 G,)F, E,2"^cresc." C,C, |[M:4/4] F,2 E,2 D,2 F,2 | %4
w: So|weich * und warm *|Hegt dich kein Arm Als dich|Mut- ter- arm um-|
w: ||||
w: Und|wenn * er- greist in|treu- * em Geist du manch'|Ju- gend- bild be-|
!>(! (B,,6!>)! E,2) | z!p! E,E,G, C4- | CDDC"^cresc." F,2 =A,,2 | B,,2 D,2 =E,2 F,2 | %8
w: fängt, *|Kein Trost so traut|* dich ü- ber- taut, Als|wenn ihr Aug' an|
w: ||||
w: wahrst, *|vor Al- lem hoch|* be- glückt dich doch, daß|dei- ner Mut- ter|
!>(! B,,6!>)! E,!pp!E, | A,,2 A,,2 B,,2 B,,2 | E,3 z !fermata!z!mf! CCC | C4- CCCC | C4- CCCC | %13
w: dei- nem, ihr|Aug' an dei- nem|hängt. * * *||Kind, * daß dich die|
w: ||* Drum sei ge-|sinnt * als gu- tes||
w: Kind, dei\- ner|Mut- ter Kind du|warst. * * *|||
 C2 B,2"^cresc." =A,D,G,^C, | D,3 z z4 |!mf! z B,DC B,4 | z EDC B, A,2"^cresc." A, | %17
w: Mut- ter ster- bend seg- net|ein:|Sonst ob auch Lieb,|sonst ob auch Lieb, ob auch|
w: ||||
w: ||||
 G,2 G,2 _G,2 G,2 | (F,2 =A,)!p!G, F,2 =A,,2 | B,,2 D,2 =E,2 F,F, | B,,3 z z2 z!pp! E, | %21
w: Lieb und Freund- schaft|blieb, * bist den- noch|mut- ter- see- len- al-|lein, bist|
w: ||||
w: ||||
 A,,2 A,,2 B,,2 B,,B,, | E,3 z z |] %23
w: mut- ter- see- len- al-|lein.|
w: ||
w: ||

